X: 38276
T: St. Helen's Bay
R: jig
M: 6/8
K: Gmajor
|:A2|B3 BAB|d2 B B3|d2 B B3|cBA BAG|
B3 BAB|d2 B B3|d2 B cBA|1 G3 G2:|2 G3 G||
|:Bd|g3 gfg|a2 g d3|g2 d d2 B|cBA BAG|
g3 gfg|a2 g d3|g2 d cBA|1 G3 G:|2 G3 G3||

